X: 100421
T: OLD WOODHOUSELEE CASTLE (Strathspey)
C: Com. by G. Duncan, Esq.
R: strathspey
B: K\"ohler's Violin Repository, v.3, 1885 p.271 #2
F: http://www.archive.org/details/klersviolinrepos03rugg
Z: 2012 John Chambers <jc:trillian.mit.edu>
N: A few missing dots added to fix the rhythm.
M: C|
L: 1/8
K: G
uD |\
((3BAG) (B,>D) (C>E) D2 | ((3BAG) (C>E) (B,>D) A,2 |\
((3BAG) (B,>D) (C>E) D2  | (3EFG (3ABc (3BAG (3FED |
((3BAG) (B,>D) (C>E) D2 | ((3BAG) (C>E) (B,>D) A,2 |\
((3BAG) (B,>D) (C>E) D2 | (3EFG (3ABc (B>G) G ||
|: ud |\
(.g>.g) (b/a/g/f) (.g>.d) (B>G) | (c>e) (B>d) (.A>.G) (F>D) |\
[1 (.g>.g) (b/a/g/f/) (.g>.d) (B>G) |
(3ABc (3Adc (B<G) G :|[2 (3GAB (3ABc (3Bcd (3cde |\
(3def "_Segue Reel. Volti Subito."(g>a) (b<g) g2 "_D.C."|]

%%sep 2 1 500

